X: 17911
T: House In The Glen, The
R: jig
M: 6/8
K: Gmajor
ded GBd|edB d2e|dBA GAB|AGE EGE|
ded GBd|edB d2e|dBA GAB|AGF G3:|
ded GBd|~g2g e2g|dgd edB|BAG ABc|
ded GBd|~g2g e2g|dBG AGA|BGF G3:|

